X:44
T:NTLRYST2- The Night Before Larry Was Sretched (corrected)
S:Walker's Hibernian Magazine, 1787
Q:1/4=120
L:1/8
M:9/8
K:Gm
(d6d3)|BAG GA^F G2G|AFF FGF cAz|(d6d3)|BAG GA^FG2G|\
AGF e=ed cA||d|dgg ga^fg2d/d/|dgg gab afd|c=ef fg=ef2d|\
cBA f=ed cA||]

